build/img/icons/house.svg

<svg width="22" height="22" viewBox="0 0 22 22" fill="none" xmlns="http://www.w3.org/2000/svg">
<path d="M17.4152 1.83301H8.2485C7.23742 1.83301 6.41517 2.65526 6.41517 3.66634V8.78684L2.10042 13.1016C1.97226 13.2298 1.88499 13.3931 1.84963 13.5709C1.81428 13.7487 1.83243 13.933 1.9018 14.1004C1.97116 14.2679 2.08862 14.4111 2.23933 14.5118C2.39004 14.6125 2.56723 14.6663 2.7485 14.6663V19.2497C2.7485 19.4928 2.84508 19.7259 3.01699 19.8979C3.1889 20.0698 3.42205 20.1663 3.66517 20.1663H18.3318C18.575 20.1663 18.8081 20.0698 18.98 19.8979C19.1519 19.7259 19.2485 19.4928 19.2485 19.2497V3.66634C19.2485 2.65526 18.4263 1.83301 17.4152 1.83301ZM10.0818 18.333H4.58184V13.2125L7.33184 10.4625L10.0818 13.2125V18.333ZM17.4152 18.333H11.9152V14.6663C12.0966 14.6667 12.2741 14.6132 12.4251 14.5126C12.5761 14.4119 12.6938 14.2687 12.7632 14.101C12.8327 13.9334 12.8507 13.7488 12.8151 13.5709C12.7795 13.393 12.6919 13.2296 12.5633 13.1016L8.2485 8.78684V3.66634H17.4152V18.333Z" fill="#535257"/>
<path d="M10.0846 5.5H11.918V7.33333H10.0846V5.5ZM13.7513 5.5H15.5846V7.33333H13.7513V5.5ZM13.7513 9.19508H15.5846V11H13.7513V9.19508ZM13.7513 12.8333H15.5846V14.6667H13.7513V12.8333ZM6.41797 13.75H8.2513V15.5833H6.41797V13.75Z" fill="#535257"/>
</svg>

<svg width="22" height="22" fill="none" xmlns="http://www.w3.org/2000/svg">
    <path d="M17.415 1.833H8.25a1.835 1.835 0 0 0-1.834 1.833v5.12L2.1 13.103a.917.917 0 0 0 .648 1.564v4.584a.917.917 0 0 0 .917.916h14.667a.917.917 0 0 0 .916-.916V3.666a1.835 1.835 0 0 0-1.833-1.833zm-7.333 16.5h-5.5v-5.12l2.75-2.75 2.75 2.75v5.12zm7.333 0h-5.5v-3.667a.916.916 0 0 0 .648-1.564L8.248 8.787v-5.12h9.167v14.666z" fill="#535257"/>
    <path d="M10.085 5.5h1.833v1.833h-1.833V5.5zm3.666 0h1.834v1.833H13.75V5.5zm0 3.695h1.834V11H13.75V9.195zm0 3.638h1.834v1.834H13.75v-1.834zm-7.333.917h1.833v1.833H6.418V13.75z" fill="#535257"/>
</svg>
